wheelchair-accessibility.svg

<svg fill="currentColor" viewBox="0 0 24 24"><path d="m18.4 11.2-4.1.2 2.3-2.6c.2-.3.3-.8.2-1.3-.1-.3-.2-.6-.5-.8l-5.4-3.2c-.4-.3-1-.2-1.4.1L6.8 6.1c-.5.5-.6 1.2-.1 1.7.4.5 1.2.5 1.7.1l2-1.8 1.9 1.1-4.2 4.3c-.1.1-.1.2-.2.2-.5.2-1 .4-1.4.7L8 13.9c.5-.2 1-.4 1.5-.4 1.9 0 3.5 1.6 3.5 3.5 0 .6-.1 1.1-.4 1.5l1.5 1.5q.9-1.35.9-3c0-1.2-.4-2.4-1.1-3.3l3.3-.3-.2 4.8c-.1.7.4 1.2 1.1 1.3h.1c.6 0 1.1-.5 1.2-1.1l.2-5.9c0-.3-.1-.7-.3-.9-.3-.3-.6-.4-.9-.4M18 5.5a2 2 0 0 0 2-2 2 2 0 0 0-2-2 2 2 0 0 0-2 2 2 2 0 0 0 2 2m-5.5 16.1q-1.35.9-3 .9C6.5 22.5 4 20 4 17q0-1.65.9-3l1.5 1.5c-.2.5-.4 1-.4 1.5 0 1.9 1.6 3.5 3.5 3.5.6 0 1.1-.1 1.5-.4z"/></svg>

<svg  viewBox="0 0 24 24" fill="currentColor"><path  d="M18.4,11.2L14.3,11.4L16.6,8.8C16.8,8.5 16.9,8 16.8,7.5C16.7,7.2 16.6,6.9 16.3,6.7L10.9,3.5C10.5,3.2 9.9,3.3 9.5,3.6L6.8,6.1C6.3,6.6 6.2,7.3 6.7,7.8C7.1,8.3 7.9,8.3 8.4,7.9L10.4,6.1L12.3,7.2L8.1,11.5C8,11.6 8,11.7 7.9,11.7C7.4,11.9 6.9,12.1 6.5,12.4L8,13.9C8.5,13.7 9,13.5 9.5,13.5C11.4,13.5 13,15.1 13,17C13,17.6 12.9,18.1 12.6,18.5L14.1,20C14.7,19.1 15,18.1 15,17C15,15.8 14.6,14.6 13.9,13.7L17.2,13.4L17,18.2C16.9,18.9 17.4,19.4 18.1,19.5H18.2C18.8,19.5 19.3,19 19.4,18.4L19.6,12.5C19.6,12.2 19.5,11.8 19.3,11.6C19,11.3 18.7,11.2 18.4,11.2M18,5.5A2,2 0 0,0 20,3.5A2,2 0 0,0 18,1.5A2,2 0 0,0 16,3.5A2,2 0 0,0 18,5.5M12.5,21.6C11.6,22.2 10.6,22.5 9.5,22.5C6.5,22.5 4,20 4,17C4,15.9 4.3,14.9 4.9,14L6.4,15.5C6.2,16 6,16.5 6,17C6,18.9 7.6,20.5 9.5,20.5C10.1,20.5 10.6,20.4 11,20.1L12.5,21.6Z"/></svg>
